X: 33126
T: Princess Beatrice
R: hornpipe
M: 4/4
K: Gminor
|:dc|Bd,GB Ad,^FA|Gd,GB dcBA|Bdgf edcB|AGFE DcBA|
BDGB AD^FA|GDGB dcBA|f=e_ec AG^FA|GBdg G2:|
|:FE|DBEB FBEB|DFBd fbfd|Ec^Ec FcAc|ecAF E C3|
DBEB FBEB|DFBd fbfd|f=e_ed cBAG|FEDC B,2:|

